X:3130
T:Sanglek
C:anon.
O:Denmark
Z:Transcribed by Frank Nordberg - http://www.musicaviva.com
F:http://abc.musicaviva.com/tunes/denmark/sanglek01/sanglek01-1.abc
M:2/4
L:1/8
K:Dm
"Dm"AA "G"GG|"Dm"FF "G"D2|"Dm"AA "G"GG|"Dm"FF "G"D2|
"Dm"DE F"A7"G|"Dm"A2 A2|"Dm"FF "A"EE|"Dm"D4|]
W:
W:
W:  From Musica Viva - http://www.musicaviva.com
W:  the Internet center for free sheet music downloads.

